X:1
T:Quasi adagio
T:27-Jest
T:Béla Bartók Revised and Arranged by the Composer, January 1945 
T:Book 1 (after Hungarian Folksongs)
T:For Children Nr 27 , Sz 42
C:Bela bartok
%%score { ( 1 3 ) | ( 2 4 ) }
L:1/8
Q:1/4=130
M:2/4
K:D
V:1 treble nm="Piano"
V:3 treble 
V:2 bass 
V:4 bass 
V:1
"^Allegramente" z4 | z4 | z4 | z4 |"_giocoso" .!1!A.!3!d.!2!c.!1!d | (!2!ef) !tenuto!d2 | %6
 .!1!A.!3!d.!2!c.!1!d | (!2!ef) !tenuto!d2 | (!3!gfef | !>!g2 !tenuto!a2 | !tenuto!e2) z2 | %11
!p! !tenuto!.!4
2
![=ce]2 !tenuto!.[ce]2 | !tenuto!.[=ce]2 z2 |!f! (!4!ed^cd) | (!2!!4![ce]2 f2) | %15
 !1!!3![Ad]2 z2 |!f! z4 | z4 | z4 | z4 | .!1!A.!3!d.!2!c.!1!d | (ef) !tenuto!d2 | %22
 .!1!A.!3!d.!2!c.!1!d | (ef) !tenuto!d2 |!<(! gfef!<)! |!>(! (g2 a2) | e2!>)! z2 | %27
!p![Q:1/4=100]"^rallent." !tenuto!.!5
4
2
![^Gce]2[Q:1/4=110]"^T" !tenuto!.[Gce]2 | %28
[Q:1/4=110]"^T" !tenuto!.[^Gce]2 z2 |!f![Q:1/4=130]"^a tempo" (!4!edcd) | ([ce]2 f2) | %31
 !fermata!z4 |!f! !3
1
![Bd]2 z2 | z4 | .!1!A.!3!d.!2!c.!1!d | (ef) !tenuto!d2 | %36
 .!1!A.!3!d.!2!c.!1!d | (ef) !tenuto!d2 | (!3!gfef) |!>(! (g2 a2 | e2)!>)! z2 | %41
[Q:1/4=100]"^rallentando.   \n\n" z4 |[Q:1/4=110]"^T" z4[Q:1/4=100]"^T" | %43
[Q:1/4=100]"^T"!p!"^molto" (!tenuto!.!4
2
![=ce]2[Q:1/4=90]"^T" !tenuto!.[ce]2 | %44
[Q:1/4=80]"^T" !tenuto!.[=ce]2) z2 | !fermata!z4 |!f![Q:1/4=130]"^a tempo" (!4!ed^cd) | %47
 ([ce]2 f2) | !1!!3![Ad]2 z2 | z4 | z2[K:bass]"_marcato"!<(!{/!4!^G,,} !^!!5
1
![D,,A,,]2 | %51
{/^G,,} !^![D,,A,,]2!<)!{/G,,} !^![D,,A,,]2 |!ff!{/^G,,} [D,,A,,]4 |] %53
V:2
!f! .!1
3
5
![D,F,A,] z .[D,F,A,] z | .[D,F,A,] z .[D,F,A,] z | .[D,F,A,] z .[D,F,A,] z | %3
 .[D,F,A,] z .[D,F,A,] z | .[D,F,A,] z .[D,F,A,] z | .[D,G,A,] z .[D,F,A,] z | %6
 .[D,F,A,] z .[D,F,A,] z | .[D,G,A,] z .[D,F,A,] z | .[D,E,A,] z .[D,A,] z | %9
 .[D,E,A,] z .[D,F,A,] z | !tenuto!!2
4
![A,C]2 z2 |[K:treble] !tenuto!.!2
!A2 !tenuto!.!1!A2 | %12
 !tenuto!.!2
5
![=CG]2 z2 | z4 | (!1!G2 A,2) | !2
4
![DF]2 z2 | %16
[K:bass] (!^!!3
5
![D,F,]A,[D,F,]A, | [D,F,]A,[D,F,]A, | [D,F,]A,[D,F,]A, | [D,F,]A,[D,F,]A, | %20
 [D,F,]A,[D,F,]A, | [D,G,]A,[D,F,]A,) | ([D,F,]A,[D,F,]A, | [D,G,]A,[D,F,]A,) | D4- | D4- | D2 z2 | %27
 !tenuto!.!5!C,2 !tenuto!.!2!^G,2 | !tenuto!.C2 z2 | z4 |[K:treble] (!1!G2 A,2) | !fermata!z4 | %32
 (!5!!3![B,D]!1!F[B,D]F | [B,D]!1!F[B,D]F | [B,D]!1!F[B,D]F | [B,D]^G[B,D]G) | ([B,D]F[B,D]F | %37
 [B,D]^G[B,D]G) |!ped! ([_B,D]=G) z2 | ([_B,D]G) z2 | ([_B,D]G) z2 |"^poco dim." ([_B,D]G) z2 | %42
 ([_B,D]G) z2!ped-up! |!ped!({/A,} A2 !2!F2 | !3!E2)!ped-up! z2 | !fermata!z4 | z4 | %47
[K:bass] (!1!G,2 !5!A,,2) | (!3
5
![D,F,]A,[D,F,]A, | [D,F,]A,[D,F,]A, | [D,F,]A,[D,F,]A, | %51
 [D,F,]A,[D,F,]A, | [D,F,]4) |] %53
V:3
 x4 | x4 | x4 | x4 | x4 | x4 | x4 | x4 | x4 | x4 | x4 | x4 | x4 | x4 | x4 | x4 | x4 | x4 | x4 | %19
 x4 | x4 | x4 | x4 | x4 | d4- | d4- | d2 x2 | x4 | x4 | x4 | x4 | x4 | x4 | x4 | x4 | x4 | x4 | %37
 x4 | x4 | x4 | x4 | x4 | x4 | x4 | x4 | x4 | x4 | x4 | x4 | x4 | x2[K:bass] x2 | x4 | x4 |] %53
V:4
 x4 | x4 | x4 | x4 | x4 | x4 | x4 | x4 | x4 | x4 | x4 |[K:treble] x4 | x4 | x4 | x4 | x4 | %16
[K:bass] x4 | x4 | x4 | x4 | x4 | x4 | x4 | x4 | (!1
2
!B,4- | B,2 !5!F,2) | !3!A,2 x2 | x4 | x4 | %29
 x4 |[K:treble] x4 | x4 | x4 | x4 | x4 | x4 | x4 | x4 | x4 | x4 | x4 | x4 | x4 | x4 | x4 | x4 | %46
 x4 |[K:bass] x4 | x4 | x4 | x4 | x4 | x4 |] %53

